X:1
T:Polska från Ulvön
R:Polska
O:Ulvön, Ångermanland
Z:Håkan Lidén, 2011-03-10
N:SMUS (nr 52)
M:3/4
L:1/8
K:D
|: d2 Bd cd | (3ABc d2 Af | (3fef g2 fe | fe (3cBc AB/c/ | d2 Bd cd | (3ABc d2 Af | (3fef gf ed | (3cBc d4 :: f2 (3fef ag/f/ | ef ga b2 | af/a/ ge/g/ fd/f/ | ec/e/ dA FA | f2 (3fef ag/f/ | ef ga b2 | af/a/ ge/g/ fd/f/ | ec d4 :|]

